imgs/apple.svg

<svg width="26" height="32" viewBox="0 0 26 32" fill="none" xmlns="http://www.w3.org/2000/svg">
<path d="M25.8926 24.0103C25.1876 25.5723 24.8506 26.2683 23.9426 27.6483C22.6776 29.5753 20.8926 31.9753 18.6806 31.9953C16.7156 32.0133 16.2106 30.7173 13.5436 30.7323C10.8766 30.7473 10.3206 32.0193 8.35561 32.0003C6.14361 31.9803 4.45361 29.8133 3.18761 27.8853C-0.35239 22.4973 -0.72239 16.1733 1.46061 12.8123C3.01261 10.4223 5.46061 9.02525 7.76261 9.02525C10.1056 9.02525 11.5796 10.3103 13.5176 10.3103C15.3976 10.3103 16.5426 9.02325 19.2526 9.02325C21.3006 9.02325 23.4706 10.1383 25.0176 12.0653C19.9516 14.8423 20.7746 22.0753 25.8926 24.0103Z" fill="black"/>
<path d="M17.4836 5.65125C18.4686 4.38825 19.2156 2.60425 18.9436 0.78125C17.3356 0.89125 15.4556 1.91425 14.3566 3.24825C13.3596 4.45825 12.5366 6.25325 12.8566 7.99825C14.6116 8.05325 16.4286 7.00525 17.4836 5.65125Z" fill="black"/>
</svg>

<svg width="26" height="32" fill="none" xmlns="http://www.w3.org/2000/svg"><path d="M25.893 24.01c-.705 1.562-1.042 2.258-1.95 3.638-1.265 1.927-3.05 4.327-5.262 4.347-1.965.018-2.47-1.278-5.137-1.263-2.667.015-3.223 1.287-5.188 1.268-2.212-.02-3.902-2.187-5.168-4.115-3.54-5.388-3.91-11.712-1.727-15.073 1.552-2.39 4-3.787 6.302-3.787 2.343 0 3.817 1.285 5.755 1.285 1.88 0 3.025-1.287 5.735-1.287 2.048 0 4.218 1.115 5.765 3.042-5.066 2.777-4.243 10.01.875 11.945zM17.484 5.651c.985-1.263 1.732-3.047 1.46-4.87-1.608.11-3.488 1.133-4.587 2.467-.997 1.21-1.82 3.005-1.5 4.75 1.755.055 3.572-.993 4.627-2.347z" fill="#000"/></svg>
